X:0108
T:Linky Lanky.
N:no repeat marks
M:6/8
L:1/8
Q:3/8=108
I: || ||
Z:Jack Campin * www.campin.me.uk * 2009
K:E Minor
F|E2B B2A|G2G AGF|E2B  B2A|   G2A  B2
z|E2B B2A|G2G AGF|E2B  B2A|   G2A  B2||
A|GAG d3 |F2G AGA|BcB  e2d|{d}c2B  A3 |
  BG2 AF2|G2E FED|E2B  B2A|   G2F  E2
F|GAG d2z|F2G AGA|BcB  e2d|{d}c2B HA2
d|g2g g2g|G2G AGA|B>cB B2A|   G2F  E2|]

